img/svg-flying.svg

<svg width="16" height="15" viewBox="0 0 16 15" fill="none" xmlns="http://www.w3.org/2000/svg">
<path fill-rule="evenodd" clip-rule="evenodd" d="M5.58476 14.0666C7.92861 14.0666 9.93524 12.764 10.7636 10.9173C10.7738 10.8948 7.43773 11.7843 7.54411 11.4699C7.59161 11.3295 9.63661 10.5824 11.1265 9.71104C11.9829 9.21019 12.3772 8.14997 12.3772 8.14997C12.3772 8.14997 10.9345 8.85044 10.2051 9.02813C8.73539 9.38625 7.44161 9.34769 7.44161 9.31038C7.44161 9.22969 9.5899 8.8215 12.5758 7.00197C13.9802 6.14612 14.3617 4.67193 14.3617 4.67193C14.3617 4.67193 12.8176 5.59168 11.8842 5.89534C9.67055 6.61543 7.65048 6.83244 7.65048 6.735C7.65048 6.52637 9.42821 6.03753 11.313 5.12424C12.293 4.6494 13.1417 4.02902 14.1253 3.33911C15.7346 2.21033 16 0.199951 16 0.199951C16 0.199951 14.4127 1.22371 13.6382 1.56369C10.4419 2.96655 7.61967 3.70243 5.58476 3.86174C2.51301 4.10224 0 6.24547 0 9.02813C0 11.8108 2.50038 14.0666 5.58476 14.0666Z" fill="#A6BBE8"/>
</svg>

<svg width="16" height="15" fill="none" xmlns="http://www.w3.org/2000/svg"><path fill-rule="evenodd" clip-rule="evenodd" d="M5.585 14.067c2.344 0 4.35-1.303 5.179-3.15.01-.022-3.326.867-3.22.553.048-.14 2.093-.888 3.583-1.759.856-.5 1.25-1.561 1.25-1.561s-1.443.7-2.172.878c-1.47.358-2.763.32-2.763.282 0-.08 2.148-.489 5.134-2.308 1.404-.856 1.786-2.33 1.786-2.33s-1.544.92-2.478 1.223c-2.213.72-4.234.937-4.234.84 0-.209 1.778-.697 3.663-1.61.98-.476 1.829-1.096 2.812-1.786C15.735 2.21 16 .2 16 .2s-1.587 1.024-2.362 1.364C10.442 2.967 7.62 3.702 5.585 3.862 2.513 4.102 0 6.245 0 9.028c0 2.783 2.5 5.039 5.585 5.039Z" fill="#A6BBE8"/></svg>
